packages/core/src/svgs/tokens/branded/BCN.svg

<svg width="24" height="24" viewBox="0 0 24 24" fill="none" xmlns="http://www.w3.org/2000/svg">
<path d="M20.9228 13.1383C20.1255 12.3179 19.0615 11.8093 17.9224 11.7043V11.6823C18.9485 11.5614 19.8926 11.0616 20.5698 10.281C21.1921 9.53946 21.5321 8.6017 21.5298 7.63361C21.5742 6.95267 21.4517 6.27118 21.1728 5.64833C20.8941 5.02548 20.4674 4.48011 19.93 4.0596C18.8603 3.19918 17.2498 2.85565 15.0543 2.85565H7.0427V10.4197H2V13.5713H14.9989C16.025 13.5713 16.7865 13.6124 17.2933 14.0202C17.8013 14.4287 18.0547 14.9468 18.0547 15.7303C18.0547 17.4776 16.5998 17.9837 14.9989 17.9837H10.1944V16.0927H7.0427V21.1355H15.3304C17.0984 21.2124 18.8432 20.7926 20.2937 19.7784C20.8586 19.3318 21.308 18.756 21.6037 18.0995C21.8995 17.4429 22.0331 16.7249 21.9931 16.0058C22.0095 14.9492 21.6274 13.9258 20.9228 13.1383ZM14.5248 10.4197H10.1944V6.00735H14.5356C16.5653 6.00735 17.5801 6.65218 17.5801 8.21857C17.5801 9.78494 16.5653 10.4197 14.5248 10.4197Z" fill="#F04086"/>
</svg>

<svg xmlns="http://www.w3.org/2000/svg" width="24" height="24" fill="none" viewBox="0 0 24 24">
    <path fill="#F04086" d="M20.923 13.138a4.8 4.8 0 0 0-3-1.434v-.022a4.15 4.15 0 0 0 2.647-1.401c.622-.742.962-1.68.96-2.647a4.19 4.19 0 0 0-1.6-3.574c-1.07-.86-2.68-1.204-4.876-1.204H7.043v7.564H2v3.151h12.999c1.026 0 1.787.041 2.294.45.508.408.762.926.762 1.71 0 1.747-1.455 2.253-3.056 2.253h-4.805v-1.891H7.043v5.043h8.287c1.768.076 3.513-.343 4.964-1.358a4.49 4.49 0 0 0 1.7-3.772 4.2 4.2 0 0 0-1.071-2.868m-6.398-2.718h-4.33V6.007h4.34c2.03 0 3.045.645 3.045 2.212 0 1.566-1.015 2.2-3.055 2.2"/>
</svg>
